assets/img/braze_icons/star-06.svg

<svg fill="none" height="24" viewBox="0 0 24 24" width="24" xmlns="http://www.w3.org/2000/svg"><g fill="#801ed7"><path d="m5.5 2c0-.55228-.44772-1-1-1s-1 .44772-1 1v1.5h-1.5c-.55228 0-1 .44772-1 1s.44772 1 1 1h1.5v1.5c0 .55228.44772 1 1 1s1-.44772 1-1v-1.5h1.5c.55228 0 1-.44772 1-1s-.44772-1-1-1h-1.5z"/><path d="m5.5 17c0-.5523-.44772-1-1-1s-1 .4477-1 1v1.5h-1.5c-.55228 0-1 .4477-1 1s.44772 1 1 1h1.5v1.5c0 .5523.44772 1 1 1s1-.4477 1-1v-1.5h1.5c.55228 0 1-.4477 1-1s-.44772-1-1-1h-1.5z"/><path d="m13.9333 2.64102c-.1485-.38619-.5195-.64102-.9333-.64102s-.7848.25483-.9333.64102l-1.7342 4.50886c-.3004.78105-.39482 1.00612-.52395 1.18771-.12956.18221-.28875.3414-.47096.47096-.18159.12913-.40666.22352-1.18771.52393l-4.50886 1.73422c-.38619.1485-.64102.5195-.64102.9333s.25483.7848.64102.9333l4.50886 1.7342c.78105.3004 1.00612.3948 1.18771.5239.18221.1296.3414.2888.47096.471.12913.1816.22355.4067.52395 1.1877l1.7342 4.5089c.1485.3862.5195.641.9333.641s.7848-.2548.9333-.641l1.7342-4.5089c.3004-.781.3948-1.0061.5239-1.1877.1296-.1822.2888-.3414.471-.471.1816-.1291.4067-.2235 1.1877-.5239l4.5089-1.7342c.3862-.1485.641-.5195.641-.9333s-.2548-.7848-.641-.9333l-4.5089-1.73422c-.781-.30041-1.0061-.3948-1.1877-.52393-.1822-.12956-.3414-.28875-.471-.47096-.1291-.18159-.2235-.40666-.5239-1.18771z"/></g></svg>

<svg width="24" height="24" viewBox="0 0 24 24" fill="none" xmlns="http://www.w3.org/2000/svg">
<path d="M5.5 2C5.5 1.44772 5.05228 1 4.5 1C3.94772 1 3.5 1.44772 3.5 2V3.5H2C1.44772 3.5 1 3.94772 1 4.5C1 5.05228 1.44772 5.5 2 5.5H3.5V7C3.5 7.55228 3.94772 8 4.5 8C5.05228 8 5.5 7.55228 5.5 7V5.5H7C7.55228 5.5 8 5.05228 8 4.5C8 3.94772 7.55228 3.5 7 3.5H5.5V2Z" fill="#801ED7"/>
<path d="M5.5 17C5.5 16.4477 5.05228 16 4.5 16C3.94772 16 3.5 16.4477 3.5 17V18.5H2C1.44772 18.5 1 18.9477 1 19.5C1 20.0523 1.44772 20.5 2 20.5H3.5V22C3.5 22.5523 3.94772 23 4.5 23C5.05228 23 5.5 22.5523 5.5 22V20.5H7C7.55228 20.5 8 20.0523 8 19.5C8 18.9477 7.55228 18.5 7 18.5H5.5V17Z" fill="#801ED7"/>
<path d="M13.9333 2.64102C13.7848 2.25483 13.4138 2 13 2C12.5862 2 12.2152 2.25483 12.0667 2.64102L10.3325 7.14988C10.0321 7.93093 9.93768 8.156 9.80855 8.33759C9.67899 8.5198 9.5198 8.67899 9.33759 8.80855C9.156 8.93768 8.93093 9.03207 8.14988 9.33248L3.64102 11.0667C3.25483 11.2152 3 11.5862 3 12C3 12.4138 3.25483 12.7848 3.64102 12.9333L8.14988 14.6675C8.93093 14.9679 9.156 15.0623 9.33759 15.1914C9.5198 15.321 9.67899 15.4802 9.80855 15.6624C9.93768 15.844 10.0321 16.0691 10.3325 16.8501L12.0667 21.359C12.2152 21.7452 12.5862 22 13 22C13.4138 22 13.7848 21.7452 13.9333 21.359L15.6675 16.8501C15.9679 16.0691 16.0623 15.844 16.1914 15.6624C16.321 15.4802 16.4802 15.321 16.6624 15.1914C16.844 15.0623 17.0691 14.9679 17.8501 14.6675L22.359 12.9333C22.7452 12.7848 23 12.4138 23 12C23 11.5862 22.7452 11.2152 22.359 11.0667L17.8501 9.33248C17.0691 9.03207 16.844 8.93768 16.6624 8.80855C16.4802 8.67899 16.321 8.5198 16.1914 8.33759C16.0623 8.156 15.9679 7.93093 15.6675 7.14988L13.9333 2.64102Z" fill="#801ED7"/>
</svg>
